!!!COM: Ludwig van Beethoven
!!!CNT: Deutsch
!!!TXO: Deutsch
!!!OTL: "Das Glu2ck der Freundschaft"
!!!OPS: Op. 88
!!!ENC: Amanda Harris
!!!YOR: Sa2mtliche Lieder, Band 1
!!!YOR: G. Henle Verlag
!!!ODT: 1803/
!!NB: Vocal melody and text encoded.
**kern	**silbe
*clefG2	*
*k[f#c#g#]	*
*M2/4	*
*MM[andante quasi allegretto]	*
=1	=1
4r	.
8r	.
{8cc#	{Der
=2	=2
8a	lebt
8a	ein
8b	Le-
8cc#	-ben
=3	=3
8.dd	won-
16cc#	-nig-
8b	-lich,
8a	des
=4	=4
8g#	Herz
8g#	ein
8a	Herz
8b	ge-
=5	=5
[4cc#	-winnt!!
16cc#]	|
16ee	|
16dd	Ge-
16b	|
=6	=6
8a	-teil-
8a	-te
8b	Lust
8cc#	ver-
=7	=7
8.dd	-dop-
16cc#	-pelt
8b	sich,
8a	ge-
=8	=8
8g#	-teil-
8g#	-ter
16g#	Gram
16ee	|
16d	zer-
16b	|
=9	=9
4a}	-rinnt.}
8r	.
{16cc#	{Be-
16b	|
=10	=10
8b	-blu2m-
8ee	-te
8dd#	We-
8ff#	-ge
=11	=11
8.ee	wan-
32dd#	-delt
32cc#	|
8b	ab,
16cc#	wem
16b	|
=12	=12
8b	trau-
8ee	-li-
8dd#	-ches
16ee	Ge-
16ff#	|
=13	=13
4.ee	-leit,
8ee	den
=14	=14
8ddn	Arm
8dd	die
8dd	gold-
8cc#	-ne
=15	=15
8.b	Freund-
16cc#	-schaft
16ee	gab
16dd	|
16cc#	in
16b	|
=16	=16
16a	die-
16g#	|
8g#	-ser
8g#	ehr-
16a	-nen
16b	|
=17	=17
4a}	Zeit.}
4r	.
=19	=19
4r	.
8r	.
{16ee	{Sie
16cc#	|
=20	=20
8a	weckt
8a	die
8b	Kraft
8cc#	und
=21	=21
8.dd	spornt
16cc#	den
8b	Mut
8a	zu
=22	=22
8g#	scho2-
8g#	-non
8a	Ta-
8b	-ten
=23	=23
[4cc#	nur
16cc#]	|
16ee	|
16dd	und
16b	|
=24	=24
8a	na2hrt
8a	in
8b	uns
8cc#	die
=25	=25
8.dd	heil'-
16cc#	-ge
8b	Glut
8a	fu2r
=26	=26
8g#	Wahr-
8g#	-heit
16g#	und
16ee	|
16dd	Na-
16b	|
=27	=27
4a}	-tur.}
8r	.
{16cc#	{Er-
16b	|
=28	=28
8b	-flo-
8ee	-gen
8dd#	hat
8ff#	des
=29	=29
8.ee	Glu2k-
32dd#	-kes
32cc#	|
8b	Ziel,
16cc#	wer
16b	|
=30	=30
8b	sich
8ee	ein
8dd#	Ma2d-
1633	-chen
16ff#	|
=31	=31
4.ee	fand,
8ee	mit
=32	=32
8ddn	dem
8dd	der
8dd	Lie-
8cc#	-be
=33	=33
8.b	Zart-
16cc#	-ge-
16ee	-fu2hl
16dd	|
16cc#	ihn
16b	|
=34	=34
16a	in-
16g	|
8g	-nig-
8g	-lich
16a	ver-
16b	|
=35	=35
4a}	band.}
8r	.
{16cc#	{Ent-
16b	|
=36	=36
8b	-zu2ckt
8ee	von
8dd#	ihr,
8ff#	mit
=37	=37
8.ee	ihr
32dd#	ge-
32cc#	|
8b	-sellt,
16cc#	ver-
16b	|
=38	=38
8b	-scho2-
8ee	-nert
8dd#	sich
16ee	die
16ff#	|
=39	=39
8ee	Bahn,
8ee	mit
[4ee	ihr,
=40	=40
9ee]	|
8ddn	durch
8dd	sie
8cc#	blu2ht
=41	=41
8.b	ihm
16cc#	die
16ee	Welt,
16dd	|
16cc#	und
16b	|
=42	=42
16a	al-
16g#	|
8g#	-les
8g#	lacht
16a	ihn
16b	|
=43	=43
8a}	an,}
8r	.
{8b	{al-
8b	-les,
=44	=44
4r	.
8cc#	al-
8cc#	-les,
=45	=45
8.dd#	al-
16dd#	-les
16dd#	lacht
32ee	|
32dd#	|
16cc#	|
16dd#	ihn
=46	=46
[2ee	an.
=47	=47
16ee]	|
16dd#	|
16ff#	|
16ee	|
16ddn	|
16cc#	|
16dd	Der
16b	|
=48	=48
8a	lebt
8a	ein
8b	Le-
8cc#	-ben
=49	=49
8.dd	won-
16cc#	-nig-
8b	-lich,
8a	des
=50	=50
8g#	Herz
8g#	ein
8a	Herz
8b	ge-
=51	=51
[4cc#	-winnt!
16cc#]	|
16ee	|
16dd	Ge-
16b	|
=52	=52
16b	-teil-
16a	|
16g#	-te
16a	|
16a#	Lust
16b	|
16b#	ver-
16cc#	|
=53	=53
16ee	-dop-
16dd	|
16cc#	-pelt
16dd	|
16cc#	sich,
16dd	|
16b#	ge-
16cc#	|
=54	=54
16a#	-teil-
16bn	|
16dd	-ter
16ff#	|
16ee	Gram
16dd	|
16cc#	zer-
16b	|
=55	=55
8a}	-rinnt.}
8r	.
4r	.
=56	=56
8r	.
{8ee	{Ge-
8b	-teil-
8dd	-te
=57	=57
8cc#	Lust
8ee	ver-
8b	-dop-
8dd	-pelt
=58	=58
8cc#	sich,
8ee	ge-
8b	-teil-
8dd	-ter
=59	=59
4.cc#}	Gram,}
{8ccn	{ge-
=60	=60
8.ccn	-teil-
16ccn	-ter
8b	Gram,
8a	ge-
=61	=61
8.g#	-teil-
16ff#	-ter
16e	Gram
16dd	|
16cc#	zer-
16b	|
=62	=62
4a}	-rinnt.}
4r	.
*-	*-
